packages/crs-framework/resources/svg/browse.svg

<svg width="24" height="24" viewBox="0 0 24 24" fill="none" xmlns="http://www.w3.org/2000/svg">
<path d="M2.12388 8.23077C1.80545 8.23077 1.53871 8.12738 1.32368 7.92062C1.10789 7.71456 1 7.45897 1 7.15385C1 6.84872 1.10789 6.59277 1.32368 6.386C1.53871 6.17995 1.80545 6.07692 2.12388 6.07692H5.49553C5.81396 6.07692 6.08107 6.17995 6.29686 6.386C6.51189 6.59277 6.61941 6.84872 6.61941 7.15385C6.61941 7.45897 6.51189 7.71456 6.29686 7.92062C6.08107 8.12738 5.81396 8.23077 5.49553 8.23077H2.12388ZM2.12388 13.6154C1.80545 13.6154 1.53871 13.512 1.32368 13.3052C1.10789 13.0992 1 12.8436 1 12.5385C1 12.2333 1.10789 11.9774 1.32368 11.7706C1.53871 11.5646 1.80545 11.4615 2.12388 11.4615H5.49553C5.81396 11.4615 6.08107 11.5646 6.29686 11.7706C6.51189 11.9774 6.61941 12.2333 6.61941 12.5385C6.61941 12.8436 6.51189 13.0992 6.29686 13.3052C6.08107 13.512 5.81396 13.6154 5.49553 13.6154H2.12388ZM21.1175 18.2462L17.5773 14.8538C17.1277 15.159 16.6362 15.3876 16.1027 15.5398C15.5685 15.6928 15.0298 15.7692 14.4866 15.7692C12.9319 15.7692 11.6068 15.2441 10.5114 14.1937C9.41526 13.1441 8.86718 11.8744 8.86718 10.3846C8.86718 8.89487 9.41526 7.62482 10.5114 6.57446C11.6068 5.52482 12.9319 5 14.4866 5C16.0413 5 17.3667 5.52482 18.4629 6.57446C19.5583 7.62482 20.106 8.89487 20.106 10.3846C20.106 10.9051 20.0266 11.4213 19.8677 11.9332C19.7081 12.4444 19.4691 12.9154 19.1507 13.3462L22.6909 16.7385C22.897 16.9359 23 17.1872 23 17.4923C23 17.7974 22.897 18.0487 22.6909 18.2462C22.4849 18.4436 22.2226 18.5423 21.9042 18.5423C21.5858 18.5423 21.3235 18.4436 21.1175 18.2462ZM14.4866 13.6154C15.4232 13.6154 16.2192 13.3013 16.8748 12.6731C17.5304 12.0449 17.8582 11.2821 17.8582 10.3846C17.8582 9.48718 17.5304 8.72436 16.8748 8.09615C16.2192 7.46795 15.4232 7.15385 14.4866 7.15385C13.55 7.15385 12.7539 7.46795 12.0983 8.09615C11.4427 8.72436 11.1149 9.48718 11.1149 10.3846C11.1149 11.2821 11.4427 12.0449 12.0983 12.6731C12.7539 13.3013 13.55 13.6154 14.4866 13.6154ZM2.12388 19C1.80545 19 1.53871 18.8966 1.32368 18.6898C1.10789 18.4838 1 18.2282 1 17.9231C1 17.6179 1.10789 17.3624 1.32368 17.1563C1.53871 16.9495 1.80545 16.8462 2.12388 16.8462H11.1149C11.4334 16.8462 11.7005 16.9495 11.9163 17.1563C12.1313 17.3624 12.2388 17.6179 12.2388 17.9231C12.2388 18.2282 12.1313 18.4838 11.9163 18.6898C11.7005 18.8966 11.4334 19 11.1149 19H2.12388Z" fill="#272C37"/>
</svg>

<svg width="24" height="24" xmlns="http://www.w3.org/2000/svg"><path d="M2.124 8.23a1.11 1.11 0 0 1-.8-.31A1.017 1.017 0 0 1 1 7.155c0-.305.108-.561.324-.768.215-.206.481-.31.8-.31h3.372c.318 0 .585.104.8.31.216.207.323.463.323.768s-.107.56-.322.767c-.216.206-.483.31-.801.31H2.124Zm0 5.385a1.11 1.11 0 0 1-.8-.31A1.017 1.017 0 0 1 1 12.54c0-.306.108-.562.324-.768.215-.206.481-.31.8-.31h3.372c.318 0 .585.104.8.31.216.206.323.462.323.768 0 .305-.107.56-.322.766-.216.207-.483.31-.801.31H2.124Zm18.994 4.631-3.54-3.392c-.45.305-.942.534-1.475.686a5.843 5.843 0 0 1-1.616.23c-1.555 0-2.88-.526-3.976-1.576s-1.644-2.32-1.644-3.81c0-1.49.548-2.76 1.644-3.81C11.607 5.524 12.931 5 14.487 5c1.554 0 2.88.525 3.976 1.574 1.095 1.05 1.643 2.32 1.643 3.81 0 .521-.08 1.037-.238 1.55-.16.51-.399.981-.717 1.412l3.54 3.392c.206.198.309.45.309.754a.999.999 0 0 1-.31.754c-.205.198-.467.296-.786.296-.318 0-.58-.098-.787-.296Zm-6.631-4.63c.936 0 1.732-.315 2.388-.943.655-.628.983-1.39.983-2.288 0-.898-.328-1.66-.983-2.289-.656-.628-1.452-.942-2.388-.942-.937 0-1.733.314-2.389.942-.655.628-.983 1.391-.983 2.289 0 .897.328 1.66.983 2.288.656.628 1.452.942 2.389.942ZM2.124 19a1.11 1.11 0 0 1-.8-.31A1.017 1.017 0 0 1 1 17.923c0-.305.108-.56.324-.767a1.11 1.11 0 0 1 .8-.31h8.99c.32 0 .586.104.802.31.215.206.323.462.323.767s-.108.56-.323.767c-.216.207-.483.31-.801.31H2.124Z"/></svg>
